svg/u1f3d7.svg

<svg viewBox="0 0 128 128" xmlns="http://www.w3.org/2000/svg">
  <path d="M6.19,29.89l34.05-16.23c0,0,11.43,2.54,33.7,8.01c25.93,6.37,31.16,8.69,31.16,8.69l-7.81,2.15 l-6.35-2.34l-50.6-12.11l-27.16,12.6l-5.96,0.88L6.19,29.89z" fill="#858585"/>
  <path d="M8.88,47.88c0,0,0,18.06,0,18.67s0.42,1.15,1.21,1.21c0.79,0.06,11.18-0.12,11.78-0.06 s1.27-0.48,1.27-1.57s0-18.18,0-18.18s-3.62-2.72-4.05-2.66S8.88,47.88,8.88,47.88z" fill="#858585"/>
  <path d="M13.3,52.2c-0.84,0.1-1.21,0.6-1.21,1.57s-0.12,7.49-0.12,8.15c0,0.66,0.06,1.33,1.03,1.39 c0.97,0.06,5.32,0.12,5.86,0.06c0.54-0.06,0.97-0.66,1.03-1.45c0.06-0.79,0-7.85,0-8.4c0-0.97-0.66-1.27-1.51-1.27 S14.26,52.08,13.3,52.2z" fill="#B0B0B0"/>
  <path d="M101.96,53.26l0.12-6.22L87.46,47.1l-0.12,5.86l3.62,3.93h2.15c-0.08,5.81-0.34,24.04-0.34,24.04 s-0.82,1.17-1.75,2.05c-1.21,1.15-3.2,2.66-3.02,6.4c0.17,3.44,3.56,6.04,6.89,6.04c3.56,0,5.98-2.6,6.1-5.07 c0.12-2.48-0.85-2.58-1.39-2.66c-0.85-0.12-1.51,0.48-1.69,1.57s-1.27,2.48-3.14,2.05s-3.08-2.48-1.57-4.47 c1.08-1.43,3.14-1.87,3.32-3.08c0.16-1.04,0.04-21.36,0.01-26.88h2.23L101.96,53.26z" fill="#858587"/>
  <path d="M91.16,68.82c-0.75,0.12-0.92,0.64-0.92,1.33c0,0.69,0.01,7.55,0.01,8.01s0,0.92,0.64,0.98 c0.64,0.06,7.22,0.06,7.56,0.06c0.52,0,0.81-0.64,0.81-1.44c0-0.81,0.04-7.56,0-8.02c-0.06-0.75-0.75-0.92-1.33-0.98 C97.35,68.69,91.68,68.74,91.16,68.82z" fill="#F1901B"/>
  <rect height="6.93" fill="#AF0C1A" width="44.65" x="74.54" y="103.5"/>
  <path d="M69.17,99.11l0.12,5.37c0,0,54.38,0.29,54.44,0.12c0.06-0.17,0.12-5.08-0.12-5.2 C123.38,99.28,69.17,99.11,69.17,99.11z" fill="#DC0D2A"/>
  <path d="M69.17,108.4v5.31l54.67,0.06c0,0,0.12-5.14-0.06-5.14C123.61,108.64,69.17,108.4,69.17,108.4z" fill="#DC0D2A"/>
  <path d="M83.66,98.07c-1.15,0.53-0.99,1.44-0.98,2.37c0.04,4.06,0.23,13.28,0.23,13.28s0.27,1.33,2.02,1.33 c2.09,0,2.25-1.39,2.25-1.39v-13.8l7.89-6.54l10.47,7.69c0,0,0.29,11.95,0.29,12.64c0,0.69,0.69,1.62,2.31,1.56 c1.85-0.07,2.08-1.56,2.08-1.56s-0.07-12.8-0.13-13.86c-0.1-1.58-2.47-1.55-2.47-1.55s-11.55-9.19-12.59-9.24 C93.88,88.95,84.46,97.7,83.66,98.07z" fill="#FF510F"/>
  <path d="M124.4,45.16c-0.54-0.57-15.92-15.65-16.66-15.65s-55.64,0-55.64,0s-8.91-13.36-10.05-15.01 c-1.28-1.86-2.43-1.96-3.59-0.05c-0.47,0.78-9.04,14.96-9.04,14.96S6.82,29.7,5.52,29.6c-1.3-0.09-1.67,0.56-1.67,1.11 c0,0.56,0,18.24,0.28,18.42s22.96,0.09,22.96,0.09l-0.19,67.4c0,0-2.02,0.04-3.41,0.04c-1.39,0-2.16,0.02-2.15,1.08 c0,0.56-0.02,2.96,0,3.8c0.04,1.6-0.13,2.42,0.93,2.41c0.93-0.01,32.5,0,34.26,0c1.76,0,1.76-1.11,1.76-1.67c0-0.56,0-3.52,0-4.44 s-0.83-1.3-1.48-1.3c-0.65,0-3.98,0-3.98,0v-51.2c0,0,3.43,0.19,7.13-0.37c3.7-0.56,4.9-4.66,5.55-7.62 c0.65-2.96,0.47-8.36,0.47-8.36s57.3,0.15,58.51-0.31C125.69,48.21,126.05,46.93,124.4,45.16z M9.33,34.21h6.7l-6.7,7.48 C9.33,39.4,9.33,34.15,9.33,34.21z M12.99,42.74l5.16-5.85l6.18,5.85H12.99z M27.39,41.09l-6.95-6.88h6.95V41.09z M47.03,96.76 l-7.04,7.12l-7.08-7.12H47.03z M34.66,93.43l5.54-5.72l5.69,5.65L34.66,93.43z M39.78,60.75l-7.98-7.51h15.35L39.78,60.75z M48.82,56.87v12.4l-6.37-6L48.82,56.87z M46.33,72.52H33.26l6.47-6.51L46.33,72.52z M48.82,78.35v12.58l-6.17-6.01L48.82,78.35z M45.99,75.79l-6.09,6.68l-6.49-6.56L45.99,75.79z M49.33,44.84H35.22l14.12-8.18V44.84z M40.11,19.71c0,0,6.36,9.23,6.2,9.54 c-0.08,0.16-3.32,0.04-6.4,0.02c-2.9-0.01-5.66,0.09-5.69-0.1C34.14,28.79,40.11,19.71,40.11,19.71z M31.73,34.14h14.34l-14.4,8.69 L31.73,34.14z M31.12,57.51l6.01,5.94l-6.01,6.12V57.51z M31.12,78.74l6.18,6.23l-6.14,6.48L31.12,78.74z M31.12,100.37l6.21,6.21 l-6.21,6.28V100.37z M32.91,116.69l7.12-7.41l7.27,7.27C44.05,116.54,36.4,116.64,32.91,116.69z M48.82,112.77l-6.18-6.22l6.18-6.43 V112.77z M53.06,44.84l0.06-8.89l8.46,8.91C56.41,44.84,53.06,44.84,53.06,44.84z M66.07,44.12L56.05,33.89l20.17-0.06L66.07,44.12z M70.62,44.88l9.77-9.56l10.2,9.61C83.87,44.91,76.79,44.89,70.62,44.88z M83.85,33.81l21.67-0.06L94.82,44.22L83.85,33.81z M116.79,44.99c-0.1,0-7.37-0.02-16.96-0.04c2.34-2.36,7.12-7.19,9.09-9.18c2.65,2.69,7.09,7.21,7.79,7.91 C117.72,44.68,117.1,44.99,116.79,44.99z" fill="#F3911C"/>
  <path d="M52.74,48.75c0,0,0.08,6.69-0.08,6.77c-0.16,0.08-25.73-0.06-26.21-0.22s-0.47-6.47-0.24-6.55 S52.74,48.75,52.74,48.75z" fill="#D15116"/>
  <path d="M57.12,50.68l0.04,7.23l6.36,4.74c0,0,1.52-1.77,2.21-5.71c0.58-3.29,0.26-6.35,0.26-6.35 S57.22,50.56,57.12,50.68z" fill="#A7D0D6"/>
</svg>

<svg viewBox="0 0 128 128" xmlns="http://www.w3.org/2000/svg">
  <defs/>
  <path d="M6.19,29.89 L40.24,13.66 C40.24,13.66 51.67,16.2 73.94,21.67 C99.87,28.04 105.1,30.36 105.1,30.36 L97.29,32.51 L90.94,30.17 L40.34,18.06 L13.18,30.66 L7.22,31.54 L6.19,29.89 Z" fill="#858585"/>
  <path d="M8.88,47.88 C8.88,47.88 8.88,65.94 8.88,66.55 C8.88,67.16 9.3,67.7 10.09,67.76 C10.88,67.82 21.27,67.64 21.87,67.7 C22.47,67.76 23.14,67.22 23.14,66.13 C23.14,65.04 23.14,47.95 23.14,47.95 C23.14,47.95 19.52,45.23 19.09,45.29 C18.66,45.35 8.88,47.88 8.88,47.88 Z" fill="#858585"/>
  <path d="M13.3,52.2 C12.46,52.3 12.09,52.8 12.09,53.77 C12.09,54.74 11.97,61.26 11.97,61.92 C11.97,62.58 12.03,63.25 13,63.31 C13.97,63.37 18.32,63.43 18.86,63.37 C19.4,63.31 19.83,62.71 19.89,61.92 C19.95,61.13 19.89,54.07 19.89,53.52 C19.89,52.55 19.23,52.25 18.38,52.25 C17.53,52.25 14.26,52.08 13.3,52.2 Z" fill="#B0B0B0"/>
  <path d="M101.96,53.26 L102.08,47.04 L87.46,47.1 L87.34,52.96 L90.96,56.89 L93.11,56.89 C93.03,62.7 92.77,80.93 92.77,80.93 C92.77,80.93 91.95,82.1 91.02,82.98 C89.81,84.13 87.82,85.64 88,89.38 C88.17,92.82 91.56,95.42 94.89,95.42 C98.45,95.42 100.87,92.82 100.99,90.35 C101.11,87.87 100.14,87.77 99.6,87.69 C98.75,87.57 98.09,88.17 97.91,89.26 C97.73,90.35 96.64,91.74 94.77,91.31 C92.9,90.88 91.69,88.83 93.2,86.84 C94.28,85.41 96.34,84.97 96.52,83.76 C96.68,82.72 96.56,62.4 96.53,56.88 L98.76,56.88 L101.96,53.26 Z" fill="#858587"/>
  <path d="M91.16,68.82 C90.41,68.94 90.24,69.46 90.24,70.15 C90.24,70.84 90.25,77.7 90.25,78.16 C90.25,78.62 90.25,79.08 90.89,79.14 C91.53,79.2 98.11,79.2 98.45,79.2 C98.97,79.2 99.26,78.56 99.26,77.76 C99.26,76.95 99.3,70.2 99.26,69.74 C99.2,68.99 98.51,68.82 97.93,68.76 C97.35,68.69 91.68,68.74 91.16,68.82 Z" fill="#F1901B"/>
  <path d="M74.54,103.5 L119.19,103.5 L119.19,110.43 L74.54,110.43 L74.54,103.5 Z" fill="#AF0C1A"/>
  <path d="M69.17,99.11 L69.29,104.48 C69.29,104.48 123.67,104.77 123.73,104.6 C123.79,104.43 123.85,99.52 123.61,99.4 C123.38,99.28 69.17,99.11 69.17,99.11 Z" fill="#DC0D2A"/>
  <path d="M69.17,108.4 L69.17,113.71 L123.84,113.77 C123.84,113.77 123.96,108.63 123.78,108.63 C123.61,108.64 69.17,108.4 69.17,108.4 Z" fill="#DC0D2A"/>
  <path d="M83.66,98.07 C82.51,98.6 82.67,99.51 82.68,100.44 C82.72,104.5 82.91,113.72 82.91,113.72 C82.91,113.72 83.18,115.05 84.93,115.05 C87.02,115.05 87.18,113.66 87.18,113.66 L87.18,99.86 L95.07,93.32 L105.54,101.01 C105.54,101.01 105.83,112.96 105.83,113.65 C105.83,114.34 106.52,115.27 108.14,115.21 C109.99,115.14 110.22,113.65 110.22,113.65 C110.22,113.65 110.15,100.85 110.09,99.79 C109.99,98.21 107.62,98.24 107.62,98.24 C107.62,98.24 96.07,89.05 95.03,89 C93.88,88.95 84.46,97.7 83.66,98.07 Z" fill="#FF510F"/>
  <path d="M124.4,45.16 C123.86,44.59 108.48,29.51 107.74,29.51 C107,29.51 52.1,29.51 52.1,29.51 C52.1,29.51 43.19,16.15 42.05,14.5 C40.77,12.64 39.62,12.54 38.46,14.45 C37.99,15.23 29.42,29.41 29.42,29.41 C29.42,29.41 6.82,29.7 5.52,29.6 C4.22,29.51 3.85,30.16 3.85,30.71 C3.85,31.27 3.85,48.95 4.13,49.13 C4.41,49.31 27.09,49.22 27.09,49.22 L26.9,116.62 C26.9,116.62 24.88,116.66 23.49,116.66 C22.1,116.66 21.33,116.68 21.34,117.74 C21.34,118.3 21.32,120.7 21.34,121.54 C21.38,123.14 21.21,123.96 22.27,123.95 C23.2,123.94 54.77,123.95 56.53,123.95 C58.29,123.95 58.29,122.84 58.29,122.28 C58.29,121.72 58.29,118.76 58.29,117.84 C58.29,116.92 57.46,116.54 56.81,116.54 C56.16,116.54 52.83,116.54 52.83,116.54 L52.83,65.34 C52.83,65.34 56.26,65.53 59.96,64.97 C63.66,64.41 64.86,60.31 65.51,57.35 C66.16,54.39 65.98,48.99 65.98,48.99 C65.98,48.99 123.28,49.14 124.49,48.68 C125.69,48.21 126.05,46.93 124.4,45.16 Z M9.33,34.21 L16.03,34.21 L9.33,41.69 C9.33,39.4 9.33,34.15 9.33,34.21 Z M12.99,42.74 L18.15,36.89 L24.33,42.74 L12.99,42.74 Z M27.39,41.09 L20.44,34.21 L27.39,34.21 L27.39,41.09 Z M47.03,96.76 L39.99,103.88 L32.91,96.76 L47.03,96.76 Z M34.66,93.43 L40.2,87.71 L45.89,93.36 L34.66,93.43 Z M39.78,60.75 L31.8,53.24 L47.15,53.24 L39.78,60.75 Z M48.82,56.87 L48.82,69.27 L42.45,63.27 L48.82,56.87 Z M46.33,72.52 L33.26,72.52 L39.73,66.01 L46.33,72.52 Z M48.82,78.35 L48.82,90.93 L42.65,84.92 L48.82,78.35 Z M45.99,75.79 L39.9,82.47 L33.41,75.91 L45.99,75.79 Z M49.33,44.84 L35.22,44.84 L49.34,36.66 L49.34,44.84 Z M40.11,19.71 C40.11,19.71 46.47,28.94 46.31,29.25 C46.23,29.41 42.99,29.29 39.91,29.27 C37.01,29.26 34.25,29.36 34.22,29.17 C34.14,28.79 40.11,19.71 40.11,19.71 Z M31.73,34.14 L46.07,34.14 L31.67,42.83 L31.73,34.14 Z M31.12,57.51 L37.13,63.45 L31.12,69.57 L31.12,57.51 Z M31.12,78.74 L37.3,84.97 L31.16,91.45 L31.12,78.74 Z M31.12,100.37 L37.33,106.58 L31.12,112.86 L31.12,100.37 Z M32.91,116.69 L40.03,109.28 L47.3,116.55 C44.05,116.54 36.4,116.64 32.91,116.69 Z M48.82,112.77 L42.64,106.55 L48.82,100.12 L48.82,112.77 Z M53.06,44.84 L53.12,35.95 L61.58,44.86 C56.41,44.84 53.06,44.84 53.06,44.84 Z M66.07,44.12 L56.05,33.89 L76.22,33.83 L66.07,44.12 Z M70.62,44.88 L80.39,35.32 L90.59,44.93 C83.87,44.91 76.79,44.89 70.62,44.88 Z M83.85,33.81 L105.52,33.75 L94.82,44.22 L83.85,33.81 Z M116.79,44.99 C116.69,44.99 109.42,44.97 99.83,44.95 C102.17,42.59 106.95,37.76 108.92,35.77 C111.57,38.46 116.01,42.98 116.71,43.68 C117.72,44.68 117.1,44.99 116.79,44.99 Z" fill="#F3911C"/>
  <path d="M52.74,48.75 C52.74,48.75 52.82,55.44 52.66,55.52 C52.5,55.6 26.93,55.46 26.45,55.3 C25.97,55.14 25.98,48.83 26.21,48.75 C26.44,48.67 52.74,48.75 52.74,48.75 Z" fill="#D15116"/>
  <path d="M57.12,50.68 L57.16,57.91 L63.52,62.65 C63.52,62.65 65.04,60.88 65.73,56.94 C66.31,53.65 65.99,50.59 65.99,50.59 C65.99,50.59 57.22,50.56 57.12,50.68 Z" fill="#A7D0D6"/>
</svg>
